icons/svg/close-octagon-outline.svg

﻿<?xml version="1.0" encoding="utf-8"?>
<!DOCTYPE svg PUBLIC "-//W3C//DTD SVG 1.1//EN" "http://www.w3.org/Graphics/SVG/1.1/DTD/svg11.dtd">
<svg xmlns="http://www.w3.org/2000/svg" xmlns:xlink="http://www.w3.org/1999/xlink" version="1.1" baseProfile="full" width="24" height="24" viewBox="0 0 24.00 24.00" enable-background="new 0 0 24.00 24.00" xml:space="preserve">
	<path fill="#000000" fill-opacity="1" stroke-width="0.2" stroke-linejoin="round" d="M 8.27125,2.9978L 2.9975,8.27125L 2.9975,15.7275L 8.27125,21.0012L 15.7275,21.0012C 17.485,19.2437 21.0013,15.7275 21.0013,15.7275L 21.0013,8.27125L 15.7275,2.9978M 9.10125,5L 14.9025,5L 18.9988,9.10125L 18.9988,14.9025L 14.9025,18.9988L 9.10125,18.9988L 5,14.9025L 5,9.10125M 9.11625,7.705L 7.705,9.11625L 10.5912,12.0025L 7.705,14.8825L 9.11625,16.2937L 12.0025,13.4088L 14.8825,16.2937L 16.2938,14.8825L 13.4087,12.0025L 16.2938,9.11625L 14.8825,7.705L 12.0025,10.5913"/>
</svg>

<svg xmlns="http://www.w3.org/2000/svg" version="1.1" baseProfile="full" width="24" height="24" viewBox="0 0 24.00 24.00" xml:space="preserve"><path fill="#000" fill-opacity="1" stroke-width=".2" stroke-linejoin="round" d="M8.27 2.998L3 8.27v7.457l5.273 5.274h7.457c1.758-1.756 5.274-5.273 5.274-5.273V8.271L15.728 3M9.1 5h5.803l4.096 4.1v5.803L14.9 18.998h-5.8L5 14.9v-5.8m4.116-1.397l-1.41 1.41 2.885 2.887-2.885 2.88 1.41 1.412 2.887-2.885 2.88 2.884 1.412-1.412-2.885-2.88 2.884-2.886-1.412-1.41-2.88 2.885"/></svg>
